X: 34432
T: Rickett's
R: hornpipe
M: 4/4
K: Dmajor
|:(3gfe|d2 d>A F>A (3def|e>d (3dcB A2 f>g|a2 (3fga b>ag>f|(3efe (3dcB A>gf>e|
d>cd>A F2 d>f|e>dc>B A2 g2|f>ad>g b>ge>c|d2 A2 D2:|
|:(3efg|a2 f>a d2 (3fga|b2 g>b e2 f>g|a>fd>g b2 (3agf|e2 (3dcB A2 (3gfe|
d>cd>A F>A (3def|e2 (3dcB A>gf>g|a2 d>g b2 e>c|d2 (3ABA D2:|
|:"straight"fe|d2 dA FAdf|edcB A2 fg|a2 fa bagf|e2 dB Agfe|
dcdA F2 df|edcB A2 g2|fadg bgec|d2 A2 D2:|
|:fg|a2 fa d2 fa|b2 gb e2 fg|afdg b2 af|e2 dB A2 fe|
dcdA FAdf|e2 dB Agfg|a2 dg b2 ec|d2 A2 D2:|

